svgs/sharp-light/folder-bookmark.svg

<svg xmlns="http://www.w3.org/2000/svg" viewBox="0 0 512 512"><!--! Font Awesome Pro 6.6.0 by @fontawesome - https://fontawesome.com License - https://fontawesome.com/license (Commercial License) Copyright 2024 Fonticons, Inc. --><path d="M32 32l192 0 48 64 208 0 32 0 0 32 0 320 0 32-32 0L32 480 0 480l0-32L0 64 0 32l32 0zm384 96l0 176 0 25.9-23.2-11.6L336 289.9l-56.8 28.4L256 329.9l0-25.9 0-176-9.6-12.8L208 64 32 64l0 384 448 0 0-320-64 0zm-32 0l-96 0 0 150.1 40.8-20.4 7.2-3.6 7.2 3.6L384 278.1 384 128z"/></svg>

<svg xmlns="http://www.w3.org/2000/svg" viewBox="0 0 512 512"><!--! Font Awesome Pro 6.4.0 by @fontawesome - https://fontawesome.com License - https://fontawesome.com/license (Commercial License) Copyright 2023 Fonticons, Inc. --><path d="M32 32H224l48 64H480h32v32V448v32H480 32 0V448 64 32H32zm384 96V304v25.9l-23.2-11.6L336 289.9l-56.8 28.4L256 329.9V304 128l-9.6-12.8L208 64H32V448H480V128H416zm-32 0H288V278.1l40.8-20.4 7.2-3.6 7.2 3.6L384 278.1V128z"/></svg>
